icons/fuelux.svg

<!--
  - The MIT License (MIT)
  -
  - Copyright (c) 2015-2024 Elior "Mallowigi" Boukhobza
  -
  - Permission is hereby granted, free of charge, to any person obtaining a copy
  - of this software and associated documentation files (the "Software"), to deal
  - in the Software without restriction, including without limitation the rights
  - to use, copy, modify, merge, publish, distribute, sublicense, and/or sell
  - copies of the Software, and to permit persons to whom the Software is
  - furnished to do so, subject to the following conditions:
  -
  - The above copyright notice and this permission notice shall be included in all
  - copies or substantial portions of the Software.
  -
  - THE SOFTWARE IS PROVIDED "AS IS", WITHOUT WARRANTY OF ANY KIND, EXPRESS OR
  - IMPLIED, INCLUDING BUT NOT LIMITED TO THE WARRANTIES OF MERCHANTABILITY,
  - FITNESS FOR A PARTICULAR PURPOSE AND NONINFRINGEMENT. IN NO EVENT SHALL THE
  - AUTHORS OR COPYRIGHT HOLDERS BE LIABLE FOR ANY CLAIM, DAMAGES OR OTHER
  - LIABILITY, WHETHER IN AN ACTION OF CONTRACT, TORT OR OTHERWISE, ARISING FROM,
  - OUT OF OR IN CONNECTION WITH THE SOFTWARE OR THE USE OR OTHER DEALINGS IN THE
  - SOFTWARE.
  -
  -->

<svg version="1.1" xmlns="http://www.w3.org/2000/svg" viewBox="0 0 512 512" width="16px" height="16px">
  <path fill="#f7901e" data-iconColor="Fuel UX"
        d="M294.1026306,133.4326477l-23.0425415,19.7507782c-15.9909363-15.3435974-35.542572-26.9988174-57.2769165-33.5910873l8.8499298-28.9322739C249.9164124,98.9505844,274.3556213,113.8301163,294.1026306,133.4326477z M307.5768433,148.4429474l-22.9781799,19.6955261c13.1948853,16.8088074,22.7041321,34.6253204,27.2833862,56.2592926l30.798584,2.0165253C337.6412048,197.2917938,325.2827148,170.6454773,307.5768433,148.4429474z M194.0639038,115.1202393l8.9256744-29.1799774c-34.0143738-5.9883499-67.4975586-1.8453674-97.3126297,10.7583923l12.6243439,27.5145874C142.0020599,114.6562653,166.8510284,111.2504578,194.0639038,115.1202393z M219.8615265,422.0571899L206.587204,394.279541C127.7976685,413.7834778,38.2585907,362.4085999,30.2473221,263.4888L0,264.176239C9.619113,396.039856,134.2608643,448.6663818,219.8615265,422.0571899z M30.6145916,243.3100586c4.141077-46.8777924,31.080019-87.30159,69.6333694-110.0883026l-12.6681595-27.6100388C38.4808617,133.4578857,4.2953577,184.6539764,0.2200665,244.0008392L30.6145916,243.3100586z M212.5442047,280.8608093L512,257.6706238v-8.0661469l-303.4888916-21.173645C220.3304596,243.583847,220.1985016,261.3880005,212.5442047,280.8608093z M203.4697723,253.637558c0-21.6520844-23.6006012-35.2580872-42.3791504-24.4320526c-18.7785187,10.8260345-18.7785187,38.0380554,0.0000153,48.8641052C179.8691711,288.8956299,203.4697723,275.2896118,203.4697723,253.637558z"/>
</svg>

<svg xmlns="http://www.w3.org/2000/svg" viewBox="0 0 512 512"><path fill="#f7901e" d="m294.103 133.433-23.043 19.75c-15.99-15.343-35.542-26.998-57.277-33.59l8.85-28.933c27.283 8.29 51.723 23.17 71.47 42.773m13.474 15.01-22.978 19.695c13.195 16.81 22.704 34.626 27.283 56.26l30.799 2.016c-5.04-29.122-17.398-55.769-35.104-77.971M194.064 115.12l8.926-29.18c-34.015-5.988-67.498-1.845-97.313 10.759l12.624 27.514c23.701-9.557 48.55-12.963 75.763-9.093m25.798 306.937-13.275-27.777c-78.79 19.503-168.328-31.871-176.34-130.791L0 264.176c9.62 131.864 134.26 184.49 219.862 157.881M30.615 243.31c4.14-46.878 31.08-87.302 69.633-110.088l-12.668-27.61C38.48 133.458 4.295 184.654.22 244zm181.93 37.55L512 257.67v-8.066l-303.489-21.173c11.82 15.153 11.688 32.957 4.033 52.43m-9.075-27.222c0-21.653-23.6-35.259-42.38-24.432-18.778 10.826-18.778 38.038 0 48.864 18.78 10.826 42.38-2.78 42.38-24.432" data-iconColor="Fuel UX"/></svg>
